X: 4
T: Follow Me Down To Milltown
R: barndance
M: 4/4
L: 1/8
K: Dmaj
A2 F>A (3ABA F>A | B2 G>B (3BcB d>B | (3ABA F>A (3ABA F>D | E>FG>A B>cd>B |
(3ABA (3FGA A2 F>A | (3BcB (3GAB B2 d>B | A>dc>B (3ABA (3GFE | (3DED C>E D4 ||
A>d (3fed A>d f2 | A>c (3edc A>c e2 | A>df>d A>df>d | e>d (3cde d>c (3dcB |
A>df>d a>df>d | A>ce>c a>ce>c | (3ded c>B (3ABA (3GFE | (3DED C>E D4 |]


Tune 252	Setting 12975

